src/icons/Google Analytics.svg

<?xml version="1.0" encoding="UTF-8" standalone="no"?>
<svg width="256px" height="256px" viewBox="0 0 256 256" version="1.1" xmlns="http://www.w3.org/2000/svg" xmlns:xlink="http://www.w3.org/1999/xlink" preserveAspectRatio="xMidYMid">
    <defs>
        <filter x="-50%" y="-50%" width="200%" height="200%" filterUnits="objectBoundingBox" id="filter-1">
            <feOffset dx="0" dy="16" in="SourceAlpha" result="shadowOffsetOuter1"></feOffset>
            <feGaussianBlur stdDeviation="9" in="shadowOffsetOuter1" result="shadowBlurOuter1"></feGaussianBlur>
            <feColorMatrix values="0 0 0 0 0   0 0 0 0 0   0 0 0 0 0  0 0 0 0.214965466 0" in="shadowBlurOuter1" type="matrix" result="shadowMatrixOuter1"></feColorMatrix>
            <feMerge>
                <feMergeNode in="shadowMatrixOuter1"></feMergeNode>
                <feMergeNode in="SourceGraphic"></feMergeNode>
            </feMerge>
        </filter>
    </defs>
    <g>
        <path d="M127.978667,155.386667 L256,27.9306667 L256,20.608 C256,9.22666667 246.773333,0 235.392,0 L20.608,0 C9.22666667,0 0,9.22666667 0,20.608 L0,170.912 L71.0666667,100.256 L127.978667,155.386667" fill="#FF9C0B"></path>
        <path d="M71.088,157.829333 L0,228.768 L0,235.392 C0,246.773333 9.22666667,256 20.608,256 L235.392,256 C246.773333,256 256,246.773333 256,235.392 L256,86.5973333 L127.978667,214.053333 L71.088,157.829333" fill="#FB5722"></path>
        <path d="M0,170.912 L71.0666667,100.256 L127.978667,155.386667 L256,27.9306667 L255.978667,86.6133333 L127.978667,214.053333 L71.088,157.829333 L0,228.768 L0,170.912" fill="#F2F2F2" filter="url(#filter-1)"></path>
        <path d="M99.552,185.968 L99.5573333,127.850667 L71.088,157.829333 L99.552,185.968" fill="#FF9B07"></path>
    </g>
</svg>

<svg width="256" height="256" viewBox="0 0 256 256" xmlns="http://www.w3.org/2000/svg" preserveAspectRatio="xMidYMid"><defs><filter x="-50%" y="-50%" width="200%" height="200%" filterUnits="objectBoundingBox" id="a"><feOffset dy="16" in="SourceAlpha" result="shadowOffsetOuter1"/><feGaussianBlur stdDeviation="9" in="shadowOffsetOuter1" result="shadowBlurOuter1"/><feColorMatrix values="0 0 0 0 0 0 0 0 0 0 0 0 0 0 0 0 0 0 0.214965466 0" in="shadowBlurOuter1" result="shadowMatrixOuter1"/><feMerge><feMergeNode in="shadowMatrixOuter1"/><feMergeNode in="SourceGraphic"/></feMerge></filter></defs><path d="M127.979 155.387L256 27.93v-7.323C256 9.227 246.773 0 235.392 0H20.608C9.227 0 0 9.227 0 20.608v150.304l71.067-70.656 56.912 55.13" fill="#FF9C0B"/><path d="M71.088 157.83L0 228.767v6.624C0 246.773 9.227 256 20.608 256h214.784c11.381 0 20.608-9.227 20.608-20.608V86.597L127.979 214.053 71.088 157.83" fill="#FB5722"/><path d="M0 170.912l71.067-70.656 56.912 55.13L256 27.932l-.021 58.682-128 127.44-56.891-56.224L0 228.768v-57.856" fill="#F2F2F2" filter="url(#a)"/><path d="M99.552 185.968l.005-58.117-28.469 29.978 28.464 28.139" fill="#FF9B07"/></svg>
